ssr-blog/static/cart.svg

<svg width="32" height="32" viewBox="0 0 32 32" fill="none" xmlns="http://www.w3.org/2000/svg">
<path fill-rule="evenodd" clip-rule="evenodd" d="M7.84 3.48C8.06663 3.17783 8.42229 3 8.8 3H23.2C23.5777 3 23.9334 3.17783 24.16 3.48L27.76 8.28C27.9158 8.48772 28 8.74036 28 9V25.8C28 26.7548 27.6207 27.6705 26.9456 28.3456C26.2705 29.0207 25.3548 29.4 24.4 29.4H7.6C6.64522 29.4 5.72955 29.0207 5.05442 28.3456C4.37928 27.6705 4 26.7548 4 25.8V9C4 8.74036 4.08421 8.48772 4.24 8.28L7.84 3.48ZM9.4 5.4L6.4 9.4V25.8C6.4 26.1183 6.52643 26.4235 6.75147 26.6485C6.97652 26.8736 7.28174 27 7.6 27H24.4C24.7183 27 25.0235 26.8736 25.2485 26.6485C25.4736 26.4235 25.6 26.1183 25.6 25.8V9.4L22.6 5.4H9.4Z" fill="#1F1F1F"/>
<path fill-rule="evenodd" clip-rule="evenodd" d="M4 9C4 8.33726 4.53726 7.8 5.2 7.8H26.8C27.4627 7.8 28 8.33726 28 9C28 9.66274 27.4627 10.2 26.8 10.2H5.2C4.53726 10.2 4 9.66274 4 9Z" fill="#1F1F1F"/>
<path fill-rule="evenodd" clip-rule="evenodd" d="M11.2 12.6C11.8627 12.6 12.4 13.1373 12.4 13.8C12.4 14.7548 12.7793 15.6705 13.4544 16.3456C14.1295 17.0207 15.0452 17.4 16 17.4C16.9548 17.4 17.8705 17.0207 18.5456 16.3456C19.2207 15.6705 19.6 14.7548 19.6 13.8C19.6 13.1373 20.1373 12.6 20.8 12.6C21.4627 12.6 22 13.1373 22 13.8C22 15.3913 21.3679 16.9174 20.2426 18.0426C19.1174 19.1679 17.5913 19.8 16 19.8C14.4087 19.8 12.8826 19.1679 11.7574 18.0426C10.6321 16.9174 10 15.3913 10 13.8C10 13.1373 10.5373 12.6 11.2 12.6Z" fill="#1F1F1F"/>
</svg>

<svg width="32" height="32" fill="none" xmlns="http://www.w3.org/2000/svg"><path fill-rule="evenodd" clip-rule="evenodd" d="M7.84 3.48A1.2 1.2 0 018.8 3h14.4a1.2 1.2 0 01.96.48l3.6 4.8c.156.208.24.46.24.72v16.8a3.6 3.6 0 01-3.6 3.6H7.6A3.6 3.6 0 014 25.8V9c0-.26.084-.512.24-.72l3.6-4.8zM9.4 5.4l-3 4v16.4A1.2 1.2 0 007.6 27h16.8a1.2 1.2 0 001.2-1.2V9.4l-3-4H9.4z" fill="#1F1F1F"/><path fill-rule="evenodd" clip-rule="evenodd" d="M4 9a1.2 1.2 0 011.2-1.2h21.6a1.2 1.2 0 010 2.4H5.2A1.2 1.2 0 014 9zM11.2 12.6a1.2 1.2 0 011.2 1.2 3.6 3.6 0 107.2 0 1.2 1.2 0 012.4 0 6 6 0 11-12 0 1.2 1.2 0 011.2-1.2z" fill="#1F1F1F"/></svg>
